X:1
T:Pacelbel Canon-ish
T:Pachelbel Canon-ish
T:arrangement by: BlainO
T:BlainO
T:BlainO
T:BlainO
T:BlainO
C:arrangement by: BlainO
Z:BlainO
%%score 1 2 3 4
L:1/8
M:4/4
K:D
V:1 treble nm="Violin" snm="Vln."
V:2 treble nm="Violin" snm="Vln."
V:3 alto nm="Viola" snm="Vla."
V:4 bass nm="Violoncello" snm="Vc."
V:1
 z8 | z8 | z8 | z8 | z8 | z8 | z8 | z8 | z8 | z8 | z8 | z8 | z8 | z8 | z8 | z8 | z8 | z8 | z8 | %19
 z8 | z8 | z8 | z8 | z8 | d2 B=c d2 Bc | dDEF GAB=c | B2 GA B2 GA | BAGF GFED | G2 EF G2 A2 | %29
 GDGA BAGF | G2 EF G2 A2 | B4 =c4 | d2 B=c d2 Bc | dDEF GAB=c | B2 GA B2 GA | BAGF GFED | %36
 G2 EF G2 A2 | GDGA BAGF | G2 EF G2 A2 | B4 =c4 | d'8 | d'2 e'2 d'2 =c'2 | b8 | b2 ^b2 =b2 a2 | %44
 g2 e2 g2 a2 | g4 d4 | g2 e2 g2 a2 | b4 =c'4 | d'2 b=c' d'2 bc' | d'def gab=c' | b2 ga b2 ga | %51
 bagf gfed | g2 ef g2 a2 | gdga bagf | g2 ef g2 a2 | b4 =c'4 | g'8 | e'4 d'4 | e'8 | d'4 b4 | %60
 =c'4 b4 | a4 g4 | =c'4 b4 | d'4 f'4 | d'2 b=c' d'2 bc' | d'def gab=c' | b2 ga b2 ga | bagf gfed | %68
 g2 ef g2 a2 | gdga bagf | g2 ef g2 a2 | b4 =c'4 | !fermata!g'8 |] %73
V:2
 z8 | z8 | z8 | z8 | z8 | z8 | z8 | z8 | z8 | z8 | z8 | z8 | z8 | z8 | z8 | z8 | d8 | %17
 d2 e2 d2 ^B2 | B8 | B2 =c2 B2 A2 | G4 G2 A2 | G4 D4 | G2 E2 G2 A2 | B4 =c4 | G8 | D8 | E8 | B,8 | %28
 =C8 | G,8 | =C8 | D8 | d8 | d2 e2 d2 ^B2 | B8 | B2 =c2 B2 A2 | G4 G2 A2 | G4 D4 | G2 E2 G2 A2 | %39
 G4 A4 | b8 | b2 =c'2 b2 a2 | B2 A2 G2 F2 | G2 F2 E2 D2 | E8 | d2 =c2 B2 A2 | G8 | G2 A2 B2 =c2 | %48
 d8 | d2 e2 d2 =c2 | B8 | B2 ^B2 =B2 A2 | G2 E2 G2 A2 | G4 D4 | G2 E2 G2 A2 | B4 =c4 | %56
 d2 B=c d2 Bc | dDEF GAB=c | B2 GA B2 GA | BAGF GFED | G2 EF G2 A2 | GDGA BAGF | G2 EF G2 A2 | %63
 B4 =c4 | b8 | b2 =c'2 b2 a2 | B2 A2 G2 F2 | G2 F2 E2 D2 | E8 | d2 =c2 B2 A2 | z2 =c2 e2 g2 | %71
 a4 f4 | !fermata!D8 |] %73
V:3
 z8 | z8 | z8 | z8 | z8 | z8 | z8 | z8 | z2 G,2 B,2 D2 | z2 D,2 F,2 A,2 | z2 E,2 G,2 B,2 | %11
 z2 B,2 D,2 F,2 | z2 =C,2 E,2 G,2 | z2 G,2 B,2 D2 | z2 =C,2 E,2 G,2 | z2 D,2 F,2 A,2 | %16
 z2 G,2 B,2 D2 | z2 D,2 F,2 A,2 | z2 E,2 G,2 B,2 | z2 B,2 D,2 F,2 | z2 =C,2 E,2 G,2 | %21
 z2 G,2 B,2 D2 | z2 =C,2 E,2 G,2 | z2 D,2 F,2 A,2 | z2 G,2 B,2 D2 | z2 D,2 F,2 A,2 | %26
 z2 E,2 G,2 B,2 | z2 B,2 D,2 F,2 | z2 =C,2 E,2 G,2 | z2 G,2 B,2 D2 | z2 =C,2 E,2 G,2 | %31
 z2 D,2 F,2 A,2 | z2 G,2 B,2 D2 | z2 D,2 F,2 A,2 | z2 E,2 G,2 B,2 | z2 B,2 D,2 F,2 | %36
 z2 =C,2 E,2 G,2 | z2 G,2 B,2 D2 | z2 =C,2 E,2 G,2 | z2 D,2 F,2 A,2 | z2 G,2 B,2 D2 | %41
 z2 D,2 F,2 A,2 | z2 E,2 G,2 B,2 | z2 B,2 D,2 F,2 | z2 =C,2 E,2 G,2 | z2 G,2 B,2 D2 | %46
 z2 =C,2 E,2 G,2 | z2 D,2 F,2 A,2 | z2 G,2 B,2 D2 | z2 D,2 F,2 A,2 | z2 E,2 G,2 B,2 | %51
 z2 B,2 D,2 F,2 | z2 =C,2 E,2 G,2 | z2 G,2 B,2 D2 | z2 =C,2 E,2 G,2 | z2 D,2 F,2 A,2 | %56
 z2 G,2 B,2 D2 | z2 D,2 F,2 A,2 | z2 E,2 G,2 B,2 | z2 B,2 D,2 F,2 | z2 =C,2 E,2 G,2 | %61
 z2 G,2 B,2 D2 | z2 =C,2 E,2 G,2 | z2 D,2 F,2 A,2 | z2 G,2 B,2 D2 | z2 D,2 F,2 A,2 | %66
 z2 E,2 G,2 B,2 | z2 B,2 D,2 F,2 | z2 =C,2 E,2 G,2 | z2 G,2 B,2 D2 | z2 =C,2 E,2 G,2 | %71
 z2 D,2 F,2 A,2 | !fermata!B,8 |] %73
V:4
 G,8 | D,8 | E,8 | B,,8 | =C,8 | G,,8 | =C,8 | D,8 | G,8 | D,8 | E,8 | B,,8 | =C,8 | G,,8 | =C,8 | %15
 D,8 | G,8 | D,8 | E,8 | B,,8 | =C,8 | G,,8 | =C,8 | D,8 | G,8 | D,8 | E,8 | B,,8 | =C,8 | G,,8 | %30
 =C,8 | D,8 | G,8 | D,8 | E,8 | B,,8 | =C,8 | G,,8 | =C,8 | D,8 | G,8 | D,8 | E,8 | B,,8 | =C,8 | %45
 G,,8 | =C,8 | D,8 | G,8 | D,8 | E,8 | B,,8 | =C,8 | G,,8 | =C,8 | D,8 | G,8 | D,8 | E,8 | B,,8 | %60
 =C,8 | G,,8 | =C,8 | D,8 | G,8 | D,8 | E,8 | B,,8 | =C,8 | G,,8 | =C,8 | D,8 | !fermata!G,8 |] %73

